content/en/docs/ops/deployment/deployment-models/cluster-ns.svg

<svg xmlns="http://www.w3.org/2000/svg" viewBox="0 0 690.27 523.1"><defs><style>.a62913a8-14be-4ba8-9477-bdbb0fc5cdb0,.a971ce99-87ed-447d-bc34-a4e2144931be,.af894025-c92c-4856-973f-1ce92c7ef0ae,.b50d01cd-a752-4ab1-ab00-9430d8da761f,.f0342664-c164-48dd-98b3-848d2ee3568d,.f2d6d958-3436-4141-a381-78886ff4d8d2{fill:none}.a62913a8-14be-4ba8-9477-bdbb0fc5cdb0,.a971ce99-87ed-447d-bc34-a4e2144931be,.af894025-c92c-4856-973f-1ce92c7ef0ae,.b50d01cd-a752-4ab1-ab00-9430d8da761f{stroke-linejoin:round}.a7c1f649-2005-40f1-a248-55533362eedd,.b6aa5b68-e940-4cb3-a2e6-49592c538baf{font-family:Roboto-Regular,Roboto}.a62913a8-14be-4ba8-9477-bdbb0fc5cdb0{stroke:#fbb040;stroke-width:2px}.a971ce99-87ed-447d-bc34-a4e2144931be,.af894025-c92c-4856-973f-1ce92c7ef0ae,.f2d6d958-3436-4141-a381-78886ff4d8d2{stroke-width:2px}.b6aa5b68-e940-4cb3-a2e6-49592c538baf{font-size:12.69px}.a2817ce0-454f-437e-b94e-3c22fec28bd3{letter-spacing:-.03em}.f9d5c39e-906c-4076-b2bd-ea27ef028371{letter-spacing:-.04em}.a971ce99-87ed-447d-bc34-a4e2144931be,.b50d01cd-a752-4ab1-ab00-9430d8da761f{stroke:#e905ee}.aba1b77e-f454-4a07-9887-7168bb1d7d82{fill:#e6e6e6}.ab3e2d58-a4f0-4070-a151-5237736d46f9{fill:#fff}.b50d01cd-a752-4ab1-ab00-9430d8da761f{stroke-width:3px}.a7c1f649-2005-40f1-a248-55533362eedd{font-size:14.81px}.b6352e55-1798-4577-8019-d4f8356bd36f{letter-spacing:.01em}.b6b142f7-2b75-4615-88dc-56e554054e08{fill:#757575}.af894025-c92c-4856-973f-1ce92c7ef0ae,.f2d6d958-3436-4141-a381-78886ff4d8d2{stroke:#fff}.f2d6d958-3436-4141-a381-78886ff4d8d2{stroke-linecap:round}.f0342664-c164-48dd-98b3-848d2ee3568d,.f2d6d958-3436-4141-a381-78886ff4d8d2{stroke-miterlimit:10}.f0342664-c164-48dd-98b3-848d2ee3568d{stroke:#090;stroke-width:4px}.fc69a095-6b1b-496a-8d29-8033f30a76e4{fill:#090}</style></defs><g id="a8a0f69e-b619-4b03-9164-36640aa6931e" data-name="cluster-ns"><rect x=".5" y="13.7" width="689.27" height="508.9" rx="10" stroke-linejoin="round" stroke="#466bb0" stroke-dasharray="10 10" fill="none"/><text transform="translate(.48 10.27)" font-family="Roboto-Regular,Roboto" font-size="12">Istio Mesh</text><rect class="a62913a8-14be-4ba8-9477-bdbb0fc5cdb0" x="19.79" y="52.17" width="307.65" height="432.43" rx="10"/><text class="b6aa5b68-e940-4cb3-a2e6-49592c538baf" transform="translate(19.99 48.86)">Cluster: <tspan x="46.27" y="0" letter-spacing="-.02em">W</tspan><tspan x="57.34" y="0" letter-spacing="0">est</tspan></text><rect class="a62913a8-14be-4ba8-9477-bdbb0fc5cdb0" x="362.81" y="52.17" width="307.65" height="432.43" rx="10"/><text class="b6aa5b68-e940-4cb3-a2e6-49592c538baf" transform="translate(363.01 48.86)">Cluster: East</text><text class="b6aa5b68-e940-4cb3-a2e6-49592c538baf" transform="translate(47.3 91.09)">Namespace:<tspan class="a2817ce0-454f-437e-b94e-3c22fec28bd3" x="70.82" y="0"> </tspan><tspan class="f9d5c39e-906c-4076-b2bd-ea27ef028371" x="73.6" y="0">T</tspan><tspan x="80.61" y="0">eam-1</tspan></text><rect class="a971ce99-87ed-447d-bc34-a4e2144931be" x="47.38" y="94.27" width="262.05" height="348.1" rx="10"/><text class="b6aa5b68-e940-4cb3-a2e6-49592c538baf" transform="translate(384.76 91.09)">Namespace:<tspan class="a2817ce0-454f-437e-b94e-3c22fec28bd3" x="70.82" y="0"> </tspan><tspan class="f9d5c39e-906c-4076-b2bd-ea27ef028371" x="73.6" y="0">T</tspan><tspan x="80.61" y="0">eam-1</tspan></text><rect class="a971ce99-87ed-447d-bc34-a4e2144931be" x="384.84" y="94.27" width="262.05" height="348.1" rx="10"/><rect class="aba1b77e-f454-4a07-9887-7168bb1d7d82" x="411.3" y="136.82" width="209.06" height="76.16" rx="3"/><rect class="ab3e2d58-a4f0-4070-a151-5237736d46f9" x="420.44" y="146.34" width="57.12" height="57.12" rx="3"/><path class="b50d01cd-a752-4ab1-ab00-9430d8da761f" d="M463.03 183v-16.19L449 158.72l-14.03 8.09V183l14.03 8.09 14.03-8.09z"/><rect class="ab3e2d58-a4f0-4070-a151-5237736d46f9" x="487.08" y="146.34" width="123.76" height="57.12" rx="3"/><text class="a7c1f649-2005-40f1-a248-55533362eedd" transform="translate(542.78 180.02)">Se<tspan class="b6352e55-1798-4577-8019-d4f8356bd36f" x="16.63" y="0">r</tspan><tspan x="21.77" y="0">vice B</tspan></text><circle class="b6b142f7-2b75-4615-88dc-56e554054e08" cx="515.64" cy="174.9" r="19.04"/><path class="af894025-c92c-4856-973f-1ce92c7ef0ae" d="M508.87 168.01h13.53v13.53h-13.53z"/><path class="f2d6d958-3436-4141-a381-78886ff4d8d2" d="M511.38 168.01v-3.25m4.26 3.25v-3.25m4.26 3.25v-3.25m-8.52 20.29v-3.26m4.26 3.26v-3.26m4.26 3.26v-3.26m-11.15-2.63h-3.26m3.26-4.26h-3.26m3.26-4.26h-3.26m20.29 8.52h-3.25m3.25-4.26h-3.25m3.25-4.26h-3.25"/><rect class="ab3e2d58-a4f0-4070-a151-5237736d46f9" x="512.63" y="171.77" width="6.01" height="6.01" rx="2"/><rect class="aba1b77e-f454-4a07-9887-7168bb1d7d82" x="73.83" y="136.82" width="209.06" height="76.16" rx="3"/><rect class="ab3e2d58-a4f0-4070-a151-5237736d46f9" x="82.98" y="146.34" width="123.76" height="57.12" rx="3"/><text class="a7c1f649-2005-40f1-a248-55533362eedd" transform="translate(138.45 180.02)">Se<tspan class="b6352e55-1798-4577-8019-d4f8356bd36f" x="16.63" y="0">r</tspan><tspan x="21.77" y="0">vice A</tspan></text><circle class="b6b142f7-2b75-4615-88dc-56e554054e08" cx="111.54" cy="174.9" r="19.04"/><path class="af894025-c92c-4856-973f-1ce92c7ef0ae" d="M104.77 168.01h13.53v13.53h-13.53z"/><path class="f2d6d958-3436-4141-a381-78886ff4d8d2" d="M107.28 168.01v-3.25m4.26 3.25v-3.25m4.26 3.25v-3.25m-8.52 20.29v-3.26m4.26 3.26v-3.26m4.26 3.26v-3.26m-11.15-2.63h-3.26m3.26-4.26h-3.26m3.26-4.26h-3.26m20.29 8.52h-3.25m3.25-4.26h-3.25m3.25-4.26h-3.25"/><rect class="ab3e2d58-a4f0-4070-a151-5237736d46f9" x="108.53" y="171.77" width="6.01" height="6.01" rx="2"/><rect class="ab3e2d58-a4f0-4070-a151-5237736d46f9" x="216.25" y="146.34" width="57.12" height="57.12" rx="3"/><path class="b50d01cd-a752-4ab1-ab00-9430d8da761f" d="M258.84 183v-16.19l-14.03-8.09-14.02 8.09V183l14.02 8.09 14.03-8.09z"/><rect class="aba1b77e-f454-4a07-9887-7168bb1d7d82" x="411.3" y="312.41" width="209.06" height="76.16" rx="3"/><rect class="ab3e2d58-a4f0-4070-a151-5237736d46f9" x="420.44" y="321.93" width="57.12" height="57.12" rx="3"/><path class="b50d01cd-a752-4ab1-ab00-9430d8da761f" d="M463.03 358.58V342.4L449 334.31l-14.03 8.09v16.18l14.03 8.09 14.03-8.09z"/><rect class="ab3e2d58-a4f0-4070-a151-5237736d46f9" x="487.08" y="321.93" width="123.76" height="57.12" rx="3"/><text class="a7c1f649-2005-40f1-a248-55533362eedd" transform="translate(542.55 355.61)">Se<tspan class="b6352e55-1798-4577-8019-d4f8356bd36f" x="16.63" y="0">r</tspan><tspan x="21.77" y="0">vice A</tspan></text><circle class="b6b142f7-2b75-4615-88dc-56e554054e08" cx="515.64" cy="350.49" r="19.04"/><path class="af894025-c92c-4856-973f-1ce92c7ef0ae" d="M508.87 343.6h13.53v13.53h-13.53z"/><path class="f2d6d958-3436-4141-a381-78886ff4d8d2" d="M511.38 343.6v-3.26m4.26 3.26v-3.26m4.26 3.26v-3.26m-8.52 20.3v-3.26m4.26 3.26v-3.26m4.26 3.26v-3.26m-11.15-2.63h-3.26m3.26-4.26h-3.26m3.26-4.26h-3.26m20.29 8.52h-3.25m3.25-4.26h-3.25m3.25-4.26h-3.25"/><rect class="ab3e2d58-a4f0-4070-a151-5237736d46f9" x="512.63" y="347.36" width="6.01" height="6.01" rx="2"/><rect class="aba1b77e-f454-4a07-9887-7168bb1d7d82" x="73.83" y="312.41" width="209.06" height="76.16" rx="3"/><rect class="ab3e2d58-a4f0-4070-a151-5237736d46f9" x="82.98" y="321.93" width="123.76" height="57.12" rx="3"/><text class="a7c1f649-2005-40f1-a248-55533362eedd" transform="translate(138.67 355.61)">Se<tspan class="b6352e55-1798-4577-8019-d4f8356bd36f" x="16.63" y="0">r</tspan><tspan x="21.77" y="0">vice B</tspan></text><circle class="b6b142f7-2b75-4615-88dc-56e554054e08" cx="111.54" cy="350.49" r="19.04"/><path class="af894025-c92c-4856-973f-1ce92c7ef0ae" d="M104.77 343.6h13.53v13.53h-13.53z"/><path class="f2d6d958-3436-4141-a381-78886ff4d8d2" d="M107.28 343.6v-3.26m4.26 3.26v-3.26m4.26 3.26v-3.26m-8.52 20.3v-3.26m4.26 3.26v-3.26m4.26 3.26v-3.26m-11.15-2.63h-3.26m3.26-4.26h-3.26m3.26-4.26h-3.26m20.29 8.52h-3.25m3.25-4.26h-3.25m3.25-4.26h-3.25"/><rect class="ab3e2d58-a4f0-4070-a151-5237736d46f9" x="108.53" y="347.36" width="6.01" height="6.01" rx="2"/><rect class="ab3e2d58-a4f0-4070-a151-5237736d46f9" x="216.25" y="321.93" width="57.12" height="57.12" rx="3"/><path class="b50d01cd-a752-4ab1-ab00-9430d8da761f" d="M258.84 358.58V342.4l-14.03-8.09-14.02 8.09v16.18l14.02 8.09 14.03-8.09z"/><path class="f0342664-c164-48dd-98b3-848d2ee3568d" d="M413.26 174.9H280.55"/><path class="fc69a095-6b1b-496a-8d29-8033f30a76e4" d="M411.81 169.92l8.63 4.98-8.63 4.99v-9.97zm-129.8 0l-8.64 4.98 8.64 4.99v-9.97z"/><path class="f0342664-c164-48dd-98b3-848d2ee3568d" d="M283.45 350.36h129.81"/><path class="fc69a095-6b1b-496a-8d29-8033f30a76e4" d="M284.9 355.35l-8.63-4.98 8.63-4.99v9.97zm126.91 0l8.63-4.98-8.63-4.99v9.97z"/><path class="f0342664-c164-48dd-98b3-848d2ee3568d" d="M244.81 314.75V210.64"/><path class="fc69a095-6b1b-496a-8d29-8033f30a76e4" d="M249.8 313.3l-4.99 8.63-4.98-8.63h9.97zm0-101.2l-4.99-8.64-4.98 8.64h9.97z"/><path class="f0342664-c164-48dd-98b3-848d2ee3568d" d="M448.49 314.75V210.64"/><path class="fc69a095-6b1b-496a-8d29-8033f30a76e4" d="M453.48 313.3l-4.99 8.63-4.99-8.63h9.98zm0-101.2l-4.99-8.64-4.99 8.64h9.98z"/></g></svg>

<svg xmlns="http://www.w3.org/2000/svg" viewBox="0 0 690.27 523.1"><defs><style>.a62913a8-14be-4ba8-9477-bdbb0fc5cdb0,.a971ce99-87ed-447d-bc34-a4e2144931be,.af894025-c92c-4856-973f-1ce92c7ef0ae,.b50d01cd-a752-4ab1-ab00-9430d8da761f,.f0342664-c164-48dd-98b3-848d2ee3568d,.f2d6d958-3436-4141-a381-78886ff4d8d2{fill:none}.a62913a8-14be-4ba8-9477-bdbb0fc5cdb0,.a971ce99-87ed-447d-bc34-a4e2144931be,.af894025-c92c-4856-973f-1ce92c7ef0ae,.b50d01cd-a752-4ab1-ab00-9430d8da761f{stroke-linejoin:round}.a7c1f649-2005-40f1-a248-55533362eedd,.b6aa5b68-e940-4cb3-a2e6-49592c538baf{font-family:Roboto-Regular,Roboto}.a62913a8-14be-4ba8-9477-bdbb0fc5cdb0{stroke:#fbb040;stroke-width:2px}.a971ce99-87ed-447d-bc34-a4e2144931be,.af894025-c92c-4856-973f-1ce92c7ef0ae,.f2d6d958-3436-4141-a381-78886ff4d8d2{stroke-width:2px}.b6aa5b68-e940-4cb3-a2e6-49592c538baf{font-size:12.69px}.a2817ce0-454f-437e-b94e-3c22fec28bd3{letter-spacing:-.03em}.f9d5c39e-906c-4076-b2bd-ea27ef028371{letter-spacing:-.04em}.a971ce99-87ed-447d-bc34-a4e2144931be,.b50d01cd-a752-4ab1-ab00-9430d8da761f{stroke:#e905ee}.aba1b77e-f454-4a07-9887-7168bb1d7d82{fill:#e6e6e6}.ab3e2d58-a4f0-4070-a151-5237736d46f9{fill:#fff}.b50d01cd-a752-4ab1-ab00-9430d8da761f{stroke-width:3px}.a7c1f649-2005-40f1-a248-55533362eedd{font-size:14.81px}.b6352e55-1798-4577-8019-d4f8356bd36f{letter-spacing:.01em}.b6b142f7-2b75-4615-88dc-56e554054e08{fill:#757575}.af894025-c92c-4856-973f-1ce92c7ef0ae,.f2d6d958-3436-4141-a381-78886ff4d8d2{stroke:#fff}.f2d6d958-3436-4141-a381-78886ff4d8d2{stroke-linecap:round}.f0342664-c164-48dd-98b3-848d2ee3568d,.f2d6d958-3436-4141-a381-78886ff4d8d2{stroke-miterlimit:10}.f0342664-c164-48dd-98b3-848d2ee3568d{stroke:#090;stroke-width:4px}.fc69a095-6b1b-496a-8d29-8033f30a76e4{fill:#090}</style></defs><g id="a8a0f69e-b619-4b03-9164-36640aa6931e" data-name="cluster-ns"><rect x=".5" y="13.7" width="689.27" height="508.9" rx="10" stroke-linejoin="round" stroke="#466bb0" stroke-dasharray="10 10" fill="none"/><text transform="translate(.48 10.27)" font-family="Roboto-Regular,Roboto" font-size="12">Istio Mesh</text><rect class="a62913a8-14be-4ba8-9477-bdbb0fc5cdb0" x="19.79" y="52.17" width="307.65" height="432.43" rx="10"/><text class="b6aa5b68-e940-4cb3-a2e6-49592c538baf" transform="translate(19.99 48.86)">Cluster: <tspan x="46.27" y="0" letter-spacing="-.02em">W</tspan><tspan x="57.34" y="0" letter-spacing="0">est</tspan></text><rect class="a62913a8-14be-4ba8-9477-bdbb0fc5cdb0" x="362.81" y="52.17" width="307.65" height="432.43" rx="10"/><text class="b6aa5b68-e940-4cb3-a2e6-49592c538baf" transform="translate(363.01 48.86)">Cluster: East</text><text class="b6aa5b68-e940-4cb3-a2e6-49592c538baf" transform="translate(47.3 91.09)">Namespace:<tspan class="a2817ce0-454f-437e-b94e-3c22fec28bd3" x="70.82" y="0"> </tspan><tspan class="f9d5c39e-906c-4076-b2bd-ea27ef028371" x="73.6" y="0">T</tspan><tspan x="80.61" y="0">eam-1</tspan></text><rect class="a971ce99-87ed-447d-bc34-a4e2144931be" x="47.38" y="94.27" width="262.05" height="348.1" rx="10"/><text class="b6aa5b68-e940-4cb3-a2e6-49592c538baf" transform="translate(384.76 91.09)">Namespace:<tspan class="a2817ce0-454f-437e-b94e-3c22fec28bd3" x="70.82" y="0"> </tspan><tspan class="f9d5c39e-906c-4076-b2bd-ea27ef028371" x="73.6" y="0">T</tspan><tspan x="80.61" y="0">eam-1</tspan></text><rect class="a971ce99-87ed-447d-bc34-a4e2144931be" x="384.84" y="94.27" width="262.05" height="348.1" rx="10"/><rect class="aba1b77e-f454-4a07-9887-7168bb1d7d82" x="411.3" y="136.82" width="209.06" height="76.16" rx="3"/><rect class="ab3e2d58-a4f0-4070-a151-5237736d46f9" x="420.44" y="146.34" width="57.12" height="57.12" rx="3"/><path class="b50d01cd-a752-4ab1-ab00-9430d8da761f" d="M463.03 183v-16.19L449 158.72l-14.03 8.09V183l14.03 8.09 14.03-8.09z"/><rect class="ab3e2d58-a4f0-4070-a151-5237736d46f9" x="487.08" y="146.34" width="123.76" height="57.12" rx="3"/><text class="a7c1f649-2005-40f1-a248-55533362eedd" transform="translate(542.78 180.02)">Se<tspan class="b6352e55-1798-4577-8019-d4f8356bd36f" x="16.63" y="0">r</tspan><tspan x="21.77" y="0">vice B</tspan></text><circle class="b6b142f7-2b75-4615-88dc-56e554054e08" cx="515.64" cy="174.9" r="19.04"/><path class="af894025-c92c-4856-973f-1ce92c7ef0ae" d="M508.87 168.01h13.53v13.53h-13.53z"/><path class="f2d6d958-3436-4141-a381-78886ff4d8d2" d="M511.38 168.01v-3.25M515.64 168.01v-3.25M519.9 168.01v-3.25M511.38 185.05v-3.26M515.64 185.05v-3.26M519.9 185.05v-3.26M508.75 179.16h-3.26M508.75 174.9h-3.26M508.75 170.64h-3.26M525.78 179.16h-3.25M525.78 174.9h-3.25M525.78 170.64h-3.25"/><rect class="ab3e2d58-a4f0-4070-a151-5237736d46f9" x="512.63" y="171.77" width="6.01" height="6.01" rx="2"/><rect class="aba1b77e-f454-4a07-9887-7168bb1d7d82" x="73.83" y="136.82" width="209.06" height="76.16" rx="3"/><rect class="ab3e2d58-a4f0-4070-a151-5237736d46f9" x="82.98" y="146.34" width="123.76" height="57.12" rx="3"/><text class="a7c1f649-2005-40f1-a248-55533362eedd" transform="translate(138.45 180.02)">Se<tspan class="b6352e55-1798-4577-8019-d4f8356bd36f" x="16.63" y="0">r</tspan><tspan x="21.77" y="0">vice A</tspan></text><circle class="b6b142f7-2b75-4615-88dc-56e554054e08" cx="111.54" cy="174.9" r="19.04"/><path class="af894025-c92c-4856-973f-1ce92c7ef0ae" d="M104.77 168.01h13.53v13.53h-13.53z"/><path class="f2d6d958-3436-4141-a381-78886ff4d8d2" d="M107.28 168.01v-3.25M111.54 168.01v-3.25M115.8 168.01v-3.25M107.28 185.05v-3.26M111.54 185.05v-3.26M115.8 185.05v-3.26M104.65 179.16h-3.26M104.65 174.9h-3.26M104.65 170.64h-3.26M121.68 179.16h-3.25M121.68 174.9h-3.25M121.68 170.64h-3.25"/><rect class="ab3e2d58-a4f0-4070-a151-5237736d46f9" x="108.53" y="171.77" width="6.01" height="6.01" rx="2"/><rect class="ab3e2d58-a4f0-4070-a151-5237736d46f9" x="216.25" y="146.34" width="57.12" height="57.12" rx="3"/><path class="b50d01cd-a752-4ab1-ab00-9430d8da761f" d="M258.84 183v-16.19l-14.03-8.09-14.02 8.09V183l14.02 8.09 14.03-8.09z"/><rect class="aba1b77e-f454-4a07-9887-7168bb1d7d82" x="411.3" y="312.41" width="209.06" height="76.16" rx="3"/><rect class="ab3e2d58-a4f0-4070-a151-5237736d46f9" x="420.44" y="321.93" width="57.12" height="57.12" rx="3"/><path class="b50d01cd-a752-4ab1-ab00-9430d8da761f" d="M463.03 358.58V342.4L449 334.31l-14.03 8.09v16.18l14.03 8.09 14.03-8.09z"/><rect class="ab3e2d58-a4f0-4070-a151-5237736d46f9" x="487.08" y="321.93" width="123.76" height="57.12" rx="3"/><text class="a7c1f649-2005-40f1-a248-55533362eedd" transform="translate(542.55 355.61)">Se<tspan class="b6352e55-1798-4577-8019-d4f8356bd36f" x="16.63" y="0">r</tspan><tspan x="21.77" y="0">vice A</tspan></text><circle class="b6b142f7-2b75-4615-88dc-56e554054e08" cx="515.64" cy="350.49" r="19.04"/><path class="af894025-c92c-4856-973f-1ce92c7ef0ae" d="M508.87 343.6h13.53v13.53h-13.53z"/><path class="f2d6d958-3436-4141-a381-78886ff4d8d2" d="M511.38 343.6v-3.26M515.64 343.6v-3.26M519.9 343.6v-3.26M511.38 360.64v-3.26M515.64 360.64v-3.26M519.9 360.64v-3.26M508.75 354.75h-3.26M508.75 350.49h-3.26M508.75 346.23h-3.26M525.78 354.75h-3.25M525.78 350.49h-3.25M525.78 346.23h-3.25"/><rect class="ab3e2d58-a4f0-4070-a151-5237736d46f9" x="512.63" y="347.36" width="6.01" height="6.01" rx="2"/><rect class="aba1b77e-f454-4a07-9887-7168bb1d7d82" x="73.83" y="312.41" width="209.06" height="76.16" rx="3"/><rect class="ab3e2d58-a4f0-4070-a151-5237736d46f9" x="82.98" y="321.93" width="123.76" height="57.12" rx="3"/><text class="a7c1f649-2005-40f1-a248-55533362eedd" transform="translate(138.67 355.61)">Se<tspan class="b6352e55-1798-4577-8019-d4f8356bd36f" x="16.63" y="0">r</tspan><tspan x="21.77" y="0">vice B</tspan></text><circle class="b6b142f7-2b75-4615-88dc-56e554054e08" cx="111.54" cy="350.49" r="19.04"/><path class="af894025-c92c-4856-973f-1ce92c7ef0ae" d="M104.77 343.6h13.53v13.53h-13.53z"/><path class="f2d6d958-3436-4141-a381-78886ff4d8d2" d="M107.28 343.6v-3.26M111.54 343.6v-3.26M115.8 343.6v-3.26M107.28 360.64v-3.26M111.54 360.64v-3.26M115.8 360.64v-3.26M104.65 354.75h-3.26M104.65 350.49h-3.26M104.65 346.23h-3.26M121.68 354.75h-3.25M121.68 350.49h-3.25M121.68 346.23h-3.25"/><rect class="ab3e2d58-a4f0-4070-a151-5237736d46f9" x="108.53" y="347.36" width="6.01" height="6.01" rx="2"/><rect class="ab3e2d58-a4f0-4070-a151-5237736d46f9" x="216.25" y="321.93" width="57.12" height="57.12" rx="3"/><path class="b50d01cd-a752-4ab1-ab00-9430d8da761f" d="M258.84 358.58V342.4l-14.03-8.09-14.02 8.09v16.18l14.02 8.09 14.03-8.09z"/><path class="f0342664-c164-48dd-98b3-848d2ee3568d" d="M413.26 174.9H280.55"/><path class="fc69a095-6b1b-496a-8d29-8033f30a76e4" d="M411.81 169.92l8.63 4.98-8.63 4.99v-9.97zM282.01 169.92l-8.64 4.98 8.64 4.99v-9.97z"/><path class="f0342664-c164-48dd-98b3-848d2ee3568d" d="M283.45 350.36h129.81"/><path class="fc69a095-6b1b-496a-8d29-8033f30a76e4" d="M284.9 355.35l-8.63-4.98 8.63-4.99v9.97zM411.81 355.35l8.63-4.98-8.63-4.99v9.97z"/><path class="f0342664-c164-48dd-98b3-848d2ee3568d" d="M244.81 314.75V210.64"/><path class="fc69a095-6b1b-496a-8d29-8033f30a76e4" d="M249.8 313.3l-4.99 8.63-4.98-8.63h9.97zM249.8 212.1l-4.99-8.64-4.98 8.64h9.97z"/><path class="f0342664-c164-48dd-98b3-848d2ee3568d" d="M448.49 314.75V210.64"/><path class="fc69a095-6b1b-496a-8d29-8033f30a76e4" d="M453.48 313.3l-4.99 8.63-4.99-8.63h9.98zM453.48 212.1l-4.99-8.64-4.99 8.64h9.98z"/></g></svg>
